wp-content/themes/ngonplus/images/logos/Thrillist_Full_Logo_Red.svg

<svg id="Layer_1" data-name="Layer 1" xmlns="http://www.w3.org/2000/svg" viewBox="0 0 621 153"><defs><style>.cls-1{fill:#d30000;}</style></defs><title>DART_Logo_FINAL</title><path class="cls-1" d="M618.5,0H2.43A2.5,2.5,0,0,0,0,2.5H0v13A2.5,2.5,0,0,0,2.43,18H600.5a2.5,2.5,0,0,1,2.5,2.5v85h0a2.5,2.5,0,0,0,2.5,2.5h13a2.5,2.5,0,0,0,2.5-2.5h0V2.5A2.5,2.5,0,0,0,618.5,0Z"/><path class="cls-1" d="M2.5,153H618.57A2.5,2.5,0,0,0,621,150.5h0v-13a2.5,2.5,0,0,0-2.43-2.49H20.5a2.5,2.5,0,0,1-2.5-2.5v-85h0A2.5,2.5,0,0,0,15.5,45H2.5A2.5,2.5,0,0,0,0,47.5H0v103A2.5,2.5,0,0,0,2.5,153Z"/><path class="cls-1" d="M97,60.1H82.87a2,2,0,0,0-2,2V106a2,2,0,0,1-2,2H65.55a2,2,0,0,1-2-2V62.1a2,2,0,0,0-2-2H47.33a2,2,0,0,1-2-2V47a2,2,0,0,1,2-2H97a2,2,0,0,1,2,2V58.1A2,2,0,0,1,97,60.1Z"/><path class="cls-1" d="M172.21,47v59a2,2,0,0,1-2,2H157.06a2,2,0,0,1-2-2V85.34a2,2,0,0,0-2-2H136.14a2,2,0,0,0-2,2V106a2,2,0,0,1-2,2H119a2,2,0,0,1-2-2V47a2,2,0,0,1,2-2h13.14a2,2,0,0,1,2,2V66.26a2,2,0,0,0,2,2h16.92a2,2,0,0,0,2-2V47a2,2,0,0,1,2-2h13.14A2,2,0,0,1,172.21,47Z"/><path class="cls-1" d="M243.13,105l-11.3-18.59a2.06,2.06,0,0,1,.42-2.56,22.14,22.14,0,0,0,7.62-17c0-10.73-8.79-21.82-21-21.82H192.21a2,2,0,0,0-2,2v59a2,2,0,0,0,2,2h13.14a2,2,0,0,0,2-2V90.66a2,2,0,0,1,2-2h3.3a2,2,0,0,1,1.7,1L225,107a2,2,0,0,0,1.7,1h14.67A2,2,0,0,0,243.13,105Zm-25-31.38h-8.81a2,2,0,0,1-2-2V62.1a2,2,0,0,1,2-2h8.37c2.11,0,4.75,2.4,4.75,6.74S220.27,73.59,218.16,73.59Z"/><rect class="cls-1" x="257.87" y="45.03" width="17.14" height="62.97" rx="2" ry="2"/><path class="cls-1" d="M293,106V47a2,2,0,0,1,2-2h13.14a2,2,0,0,1,2,2v43.9a2,2,0,0,0,2,2h24.31a2,2,0,0,1,2,2V106a2,2,0,0,1-2,2H295A2,2,0,0,1,293,106Z"/><path class="cls-1" d="M356.46,106V47a2,2,0,0,1,2-2h13.14a2,2,0,0,1,2,2v43.9a2,2,0,0,0,2,2h24.31a2,2,0,0,1,2,2V106a2,2,0,0,1-2,2H358.46A2,2,0,0,1,356.46,106Z"/><rect class="cls-1" x="419.55" y="45.03" width="17.14" height="62.97" rx="2" ry="2"/><path class="cls-1" d="M497.18,63.86a2,2,0,0,1-2.73.84c-3-1.63-9.09-4.61-14.42-4.61-2.93,0-4.91.87-4.91,3,0,3.21,4.31,3.91,11.36,6.17,11.28,3.56,18.42,7.56,18.42,19.11,0,14.85-11.88,19.63-23.24,19.63a56.51,56.51,0,0,1-24.91-6.26,2,2,0,0,1-.86-2.65l5.45-11.18a2,2,0,0,1,2.78-.87c3.36,1.92,10.82,5.67,17.81,5.67,3.61,0,4.91-1,4.91-2.69,0-3.56-6.28-4.34-13.6-6.86-10.76-3.65-15.5-8.25-15.5-17.29,0-13.64,10.76-20.85,22.81-20.85,7.94,0,15.6,3.13,21.07,5.78a2,2,0,0,1,.89,2.72Z"/><path class="cls-1" d="M574,60.1H560.07a2,2,0,0,0-2,2V106a2,2,0,0,1-2,2H542.92a2,2,0,0,1-2-2V62.1a2,2,0,0,0-2-2h-14a2,2,0,0,1-2-2V47a2,2,0,0,1,2-2H574a2,2,0,0,1,2,2V58.1A2,2,0,0,1,574,60.1Z"/></svg>

<svg width="621" height="153" xmlns="http://www.w3.org/2000/svg">
 <defs>
  <style>.cls-1{fill:#d30000;}</style>
 </defs>
 <title>DART_Logo_FINAL</title>
 <g>
  <title>background</title>
  <rect fill="none" id="canvas_background" height="402" width="582" y="-1" x="-1"/>
 </g>
 <g>
  <title>Layer 1</title>
  <path id="svg_1" d="m618.5,0l-616.07,0a2.5,2.5 0 0 0 -2.43,2.5l0,0l0,13a2.5,2.5 0 0 0 2.43,2.5l598.07,0a2.5,2.5 0 0 1 2.5,2.5l0,85l0,0a2.5,2.5 0 0 0 2.5,2.5l13,0a2.5,2.5 0 0 0 2.5,-2.5l0,0l0,-103a2.5,2.5 0 0 0 -2.5,-2.5z" class="cls-1"/>
  <path id="svg_2" d="m2.5,153l616.07,0a2.5,2.5 0 0 0 2.43,-2.5l0,0l0,-13a2.5,2.5 0 0 0 -2.43,-2.49l-598.07,0a2.5,2.5 0 0 1 -2.5,-2.5l0,-85l0,0a2.5,2.5 0 0 0 -2.5,-2.51l-13,0a2.5,2.5 0 0 0 -2.5,2.5l0,0l0,103a2.5,2.5 0 0 0 2.5,2.5z" class="cls-1"/>
  <text stroke="#d30000" transform="matrix(1.1281470060348509,0,0,1,-6.446247756481171,0) " font-weight="bold" xml:space="preserve" text-anchor="start" font-family="Helvetica, Arial, sans-serif" font-size="84" id="svg_12" y="109.09091" x="42.5" stroke-width="4" fill="#d30000">NGONPLUS</text>
 </g>
</svg>
